X:20
T:Robert Stubbert's 80th
R:jig
C:Paul S. Cranford
O:Cape Breton Island
S:http://www.cranfordpub.com
D:currently unrecorded
B:Brenda Stubbert, The 2nd Collection
Z:psc, (re-formatted,updated 9/17/04)
N:
H:                                                        copyrights Cranford Publications, SOCAN
L:1/8
Q:300
M:6/8
K:Amix
B|Ace ece|dcB A2 B|GBd daf|gdg edB|
Ace ece|dcB Aaf|gdg edB|[1A3 A2:|[2A3 Acd||
|:eAa gAa|edB Acd|eAa ged|[1e3 ecd|
eAa gAa|edB Gaf|gdg edB|A3 Acd:|
[2e3 ega|bgb aea|gAa eaf|gdg edB|A3 A2|]
W: copyrights - Cranford Publications (www. cranfordpub.com, SOCAN)
